!!!COM: Beethoven, Ludwig van
!!!CDT: 1770///-1827///
!!!OTL: Piano Sonata no. 30, mvmt. 1
!!!ODT: 1820///
!!!OMV: Vivace ma non troppo
!!!OPS: Op. 109
**kern	**kern	**dynam
*staff2	*staff1	*staff1/2
*Ipiano	*Ipiano	*Ipiano
*clefF4	*clefG2	*clefG2
*k[f#c#g#d#]	*k[f#c#g#d#]	*k[f#c#g#d#]
*E:	*E:	*E:
*M2/4	*M2/4	*M2/4
*MM152	*MM152	*MM152
*	*^	*
*	*tb960	*tb960	*
8r	16g#\LK	(4g#/	p
.	8.b\J)	.	.
(16E\LL	.	.	.
16B\JJ)	.	.	.
=1	=1	=1	=1
8r	4b/	16b\LK	.
.	.	8.f#\J	.
(16d#\LL	.	.	.
16D#\JJ)	.	.	.
8r	(4e/	16e\LK	.
.	.	8.g#\J)	.
(16C#\LL	.	.	.
16G#\JJ)	.	.	.
=2	=2	=2	=2
8r	(4g#/	16g#\LK	.
.	.	8.d#\J)	.
(16B\LL	.	.	.
16BB\JJ)	.	.	.
8r	(4c#/	16c#\LK	.
.	.	8.e\J)	.
(16AA/LL	.	.	.
16E/JJ)	.	.	.
=3	=3	=3	=3
8r	4e/	16e\LK	.
.	.	8.B\J	.
16G#\LL	.	.	.
16GG#\JJ	.	.	.
8r	4d#/ 4f#/	(16A\LK	.
.	.	8.B\J)	.
(16BBB/LL	.	.	.
16BB/JJ)	.	.	.
=4	=4	=4	=4
8r	4e/ 4g#/	16G#\LK	.
.	.	8.B\J	.
(16E/LL	.	.	.
16EE/JJ)	.	.	.
8r	4g#/	16g#\LK	<
.	.	8.b\J	.
(16E\LL	.	.	.
16B\JJ)	.	.	.
=5	=5	=5	=5
8r	4b/	16b\LK	.
.	.	8.f#\J	.
(16d#\LL	.	.	.
16D#\JJ)	.	.	.
8r	16a#/LK	4e\	.
.	8.ee/J	.	.
(16C#\LL	.	.	.
16F#\JJ)	.	.	.
=6	=6	=6	=6
8r	(16dd#/LK	4d#\	.
.	8.b/J)	.	.
(16B\LL	.	.	.
16BB\JJ)	.	.	.
8r	4b/	16b\LK	.
.	.	8.dd#\J	.
(16F#\LL	.	.	.
16f#\JJ)	.	.	.
=7	=7	=7	=7
8r	16ee\LK	4ee/	.
.	8.b\J	.	.
(16g#\LL	.	.	.
16G#\JJ)	.	.	.
8r	(16g#\LK	4b/	.
.	8.gg#\J)	.	.
(16E\LL	.	.	.
16e\JJ)	.	.	.
=8	=8	=8	=8
8r	4ff#/	16ff#\LK	.
.	.	8.b\ 8.dd#\J	.
(16f#\LL	.	.	.
16F#\JJ)	.	.	.
8r	(16cc#/LK	4a#\	.
.	8.aa#/J)	.	.
16FF#\LL	.	.	.
16F#\JJ	.	.	.
*	*v	*v	*
=9	=9	=9
*M3/4	*M3/4	*M3/4
*MM50	*MM50	*MM50
*^	*	*
8r	8r	[4an\ [4b#\ [4dd#\ [4ff#\ [4aan\	f
16B#/ (16d#/LL	8F#\ 8A\	.	.
16e/JJ)	.	.	.
*v	*v	*	*
*clefG2	*	*
*^	*	*
(16f#'/LL	8r	8a\] 8b#\] 8dd#\] 8ff#\] 8aa\L]	.
16g#/J)	.	.	.
8a/J	8B#\ 8d#\	(16gg#'\L	p
.	.	16ff#'\JJ)	<
16e/ (16g#/LL	16c#\LL	16cc#\ (16ee\LL	.
16a/	16f#\	16b#\ 16dd#\)	.
(16g#'/)	16e\	16cc#'\ (16ee'\	.
16f#/JJ)	16d#\JJ	16g#'\ 16b#'\ 16ff#'\JJ)	.
*v	*v	*	*
*clefF4	*	*
=10	=10	=10
*^	*^	*
16r	8r	(8ff##/L	4r	f
[16E\	.	.	.	.
8E\] 8G#\	16c#/LL	[8g#/ [8cc#/ [8ee/ [8gg#/J	.	.
.	16d#/JJ	.	.	.
*v	*v	*	*	*
*clefG2	*	*	*
*clefF4	*	*	*
*^	*	*	*
4r	4r	8g#/] 8cc#/] 8ee/] 8gg#/L]	8r	.
.	.	16ff#/L	8cc#\	p
.	.	16ee'/JJ)	.	.
16B\ (16d#\LL	16e'/LL	(16f#/ 16dd#/LL	4r	.
16A#\ 16c#\)	16f#/J	16e/) 16f#/ 16cc#/	.	.
(16B'\	8A#/ 8gn/J	(16d#'/ 16f#'/ 16dd#'/	.	.
16G#'\ 16B'\ 16e'\JJ)	.	16b'/) 16ee'/JJ	.	.
*v	*v	*	*	*
*	*v	*v	*
=11	=11	=11
8D#\ 8B\L	(16ff#\LL	p
.	16b\	.
8G#\ 8B\J	16ff#\	.
.	16ee\JJ	.
8F#\ 8B\L	4dd#\)	.
8F#\ 8B\ 8d#\J	.	.
8F#\ 8A#\ 8c#\L	(40cc#\LLL	<
.	40dd#\	.
.	40cc#\	.
.	40b#\	.
.	40cc#\JJJ)	.
8F#\ 8An\ 8B#\ 8d#\J	(48dd#\LLL	.
.	48ee\	.
.	48ee#\	.
.	48ff#\	.
.	48ff##\	.
.	48gg#\JJJ)	.
=12	=12	=12
*^	*	*
8r	[2FFF#\ [2FF#\	32aa\LLL	f
.	.	32aaa\	.
.	.	32ddd#\	.
.	.	32bb#\JJJ	.
8r	.	32aa\LLL	.
.	.	32dd#\	.
.	.	32b#\	.
.	.	32a\JJJ	.
8r	.	32d#/LLL	.
.	.	32B#/	.
.	.	32A/	.
.	.	32D#/JJJ	p
(48BB#/LLL	.	8r	.
48AA/	.	.	.
48BB#/	.	.	.
48D#/	.	.	.
48A/	.	.	.
48B#/JJJ)	.	.	.
8r	8FFF#\] 8FF#\]	64d#/LLLL	<
.	.	64a/	.
.	.	64b#/	.
.	.	64dd#/JJJJ	.
.	.	64aa\LLLL	.
.	.	64bb#\	.
.	.	64ddd#\	.
.	.	64aaa\JJJJ	.
8r	(16EEE#\ 16EE#\LL	16gg#\ (16ggg#\LL	p
.	16DDD#\) 16DD#\JJ	16ff##\ 16fff##\JJ)	.
=13	=13	=13	=13
8r	4DDD#\ 4DD#\	(48fff##\LLL	f
.	.	48ddd#\	.
.	.	48aa#\JJJ)	.
.	.	(48ff##\LLL	.
.	.	48dd#\	.
.	.	48a#\JJJ)	.
16r	.	(48f##/LLL	.
.	.	48d#/	.
.	.	48A#/JJJ)	.
48F##/LLL	.	8r	.
48D#/	.	.	.
48AA#/JJJ	.	.	.
64DD#\LLLL	4r	.	.
64FF##\	.	.	.
64AA#\	.	.	.
64D#\JJJJ	.	.	.
64F##\LLLL	.	16r	.
64A#\	.	.	.
64d#\	.	.	.
64f##\JJJJ	.	.	.
64D#\LLLL	.	16r	.
64F##\	.	.	.
64A#\	.	.	.
64d#\JJJJ	.	.	.
16r	.	64f##/LLLL	>
.	.	64a#/	.
.	.	64dd#/	.
.	.	64ff##/JJJJ	.
*v	*v	*	*
*clefG2	*	*
*^	*	*
64d#/LLLL	4r	16r	.
64f##/	.	.	.
64a#/	.	.	.
64dd#/JJJJ	.	.	.
16r	.	64ff##\LLLL	.
.	.	64aa#\	.
.	.	64ddd#\	.
.	.	64fff##\JJJJ	.
*clefF4	*clefF4	*	*
[16DD#/ 16AA#/ 16D#/LL	.	16ff##\ (16fff##\LL	p
16DD#/] 16BB/ 16D#/JJ	.	16ff#\ 16fff#\JJ)	.
*v	*v	*	*
=14	=14	=14
16DD#\ 16BB\ 16D#\LL	(32fff#\LLL	.
.	32bb\	.
16D#\ 16B\JJ	32aa#\	.
.	32bb\JJJ	.
16r	32aa#\LLL	.
.	32bb\	.
16G#\ 16B\ 16e\	32fff#\	.
.	32eee\JJJ)	.
16r	(32dd#\LLL	.
.	32aa#\	.
16F#\ 16B\ 16d#\	32bb\	.
.	32aa#\JJJ)	.
*clefG2	*	*
48ddd#\LLL	(48bb\LLL	.
48ccc#\	48aa#\	.
48aa#\JJJ	48ff#\JJJ)	.
48ccc#\LLL	(48aa#\LLL	.
48bb\	48gg#\	.
48gg#\JJJ	48ee\JJJ)	.
48bb\LLL	(48gg#\LLL	.
48aa#\	48ff#\	.
48ff#\JJJ	48dd#\JJJ)	.
48aa#\LLL	(48ff#\LLL	.
48gg#\	48ee\	.
48ee\JJJ	48cc#\JJJ)	.
48gg#\LLL	(48ee\LLL	.
48ff#\	48dd#\	.
48dd#\JJJ	48b\JJJ)	.
48ff#\LLL	(48dd#\LLL	.
48ee\	48cc#\	.
48cc#\JJJ	48a#\JJJ)	.
=15	=15	=15
*M5/4	*M5/4	*M5/4
*^	*	*
16b/ 16dd#/	4r	(48bb\LLL	.
.	.	48aa#\	.
.	.	48gg#\	.
*clefF4	*clefF4	*	*
16F#'/LL	.	48ff#\	.
.	.	48ee\	.
.	.	48dd#\JJJ)	.
16G#'/	.	(48cc#/LLL	.
.	.	48b/	.
.	.	48a#/	.
16A#'/JJ	.	48g#/	.
.	.	48f#/	.
.	.	48e/JJJ)	.
16B/	8r	(48d#/LLL	.
.	.	48c#/	.
.	.	48B/	.
16r	.	48A#/	.
.	.	48G#/	.
.	.	48F#/JJJ)	.
48E/LLL	16BBB\	8r	.
48D#/	.	.	.
48C#/	.	.	.
48BB/	16r	.	.
48AA#/	.	.	.
48BB/JJJ	.	.	.
48C#/LLL	8r	8r	.
48D#/	.	.	.
48E/	.	.	.
48F#/	.	.	.
48G#/	.	.	.
48A#/JJJ	.	.	.
8r	8r	(48B/LLL	.
.	.	48c#/	.
.	.	48d#/	.
.	.	48e/	.
.	.	48f#/	.
.	.	48g#/JJJ)	.
4r	4r	(16a#'\LL	.
.	.	16b'\	.
.	.	16cc#'\	.
.	.	16dd#'\JJ	.
4r	4r	16ee'\LL	.
.	.	16ff#'\	.
.	.	16gg#'\	.
.	.	16aa#'\JJ	.
*v	*v	*	*
*clefG2	*	*
=16	=16	=16
*M2/4	*M2/4	*M2/4
*MM152	*MM152	*MM152
*^	*	*
(16d#/LK	4d#\	8bb'\)	.
8.f#/J)	.	.	.
.	.	(16b\LL	.
.	.	16ff#\JJ)	.
=17	=17	=17	=17
4f#\	(16f#/LK	8r	.
.	8.c#/J)	.	.
.	.	(16b\LL	.
.	.	16a#\JJ)	.
4e\	16e/LK	8r	.
.	8.g#/J	.	.
.	.	(16cc#\LL	.
.	.	16gg#\JJ)	.
=18	=18	=18	=18
4g#\	16g#/LK	8r	.
.	8.d#/J	.	.
.	.	(16cc#\LL	.
.	.	16b#\JJ)	.
4f#\	(16f#/LK	8r	.
.	8.a/J)	.	.
.	.	16b#\ (16dd#\LL	.
.	.	16bb#\JJ)	.
=19	=19	=19	=19
16e/LK	4e\	8r	.
8.g#/J	.	.	.
.	.	16cc#\ (16ee\LL	.
.	.	16ccc#\JJ)	.
16f#/LK	4d#\	8r	.
8.g#/J	.	.	.
.	.	(16bb#\LL	.
.	.	16ddd#\JJ)	.
=20	=20	=20	=20
16e/LK	4c#\	8r	.
8.g#/J	.	.	.
.	.	(16gg#\LL	.
.	.	16eee\JJ)	.
16d#/LK	4d#\	8r	.
8.g#/J	.	.	.
.	.	16ff#\ (16ddd#\LL	.
.	.	16gg#\JJ)	.
=21	=21	=21	=21
16e/LK	4c#\	8r	.
8.g#/J	.	.	.
.	.	16ee\ (16gg#\LL	.
.	.	16eee\JJ)	.
16c#/LK	4A\	8r	.
8.f#/J	.	.	.
.	.	16ff#\ (16ccc#\LL	.
.	.	16fff#\JJ)	.
=22	=22	=22	=22
*	*	*^	*
4G#\	(16d#/LK	8r	4r	.
.	8.g#/J)	.	.	.
.	.	16gg#\ (16bb#\LL	.	.
.	.	16ggg#\JJ)	.	.
8r	4r	[4dd#/	(16a#\LK	.
.	.	.	8.d#\J)	.
*clefF4	*clefF4	*	*	*
(16F##\LL	.	.	.	.
16A#\JJ)	.	.	.	.
*v	*v	*	*	*
=23	=23	=23	=23
8r	4dd#/]	(16bn\LK	.
.	.	8.d#\J)	.
(16G#\LL	.	.	.
16B\JJ)	.	.	.
8r	4cc#/	(16f##\LK	.
.	.	8.d#\J)	.
(16AA#/LL	.	.	.
16C#/JJ)	.	.	.
=24	=24	=24	=24
8r	4b/	(16g#\LK	.
.	.	8.d#\J)	.
16BB/LL	.	.	.
16D#/JJ	.	.	.
8r	(4f##/	16e\LK	.
.	.	8.c#\J)	.
(16C#/LL	.	.	.
16E/JJ)	.	.	.
=25	=25	=25	=25
8r	4g#/ 4b/	16e#\LK	.
.	.	8.B\J	.
(16C##\LL	.	.	.
16E#\JJ)	.	.	.
8r	4e#/ 4g#/	(16B\LK	.
.	.	8.G#\J)	.
(16CC##/LL	.	.	.
16C##/JJ)	.	.	.
=26	=26	=26	=26
8r	4d#/ 4f##/	16A#\LK	p
.	.	8.F##\J	.
(16DD#/LL	.	.	.
16D#/JJ)	.	.	.
8r	4d#/ 4f##/	16A#\LK	.
.	.	8.F##\J	.
(16DD#/LL	.	.	.
16D#/JJ)	.	.	.
=27	=27	=27	=27
8r	4g#/	(16d#\LK	.
.	.	8.G#\J)	.
(16GG#/LL	.	.	.
16D#/JJ)	.	.	.
8r	(4f##/ 4a#/	16d#\LK	.
.	.	8.A#\J)	.
(16DD#/LL	.	.	.
16D#/JJ)	.	.	.
=28	=28	=28	=28
8r	4g#/ 4b/	(16d#\LK	<
.	.	8.B\J)	.
(16GGG#/LL	.	.	.
16GG#/JJ)	.	.	.
8r	4f##/ 4a#/	(16d#\LK	.
.	.	8.A#\J)	.
(16DD#/LL	.	.	.
16D#/JJ)	.	.	.
=29	=29	=29	=29
8r	4g#/ 4b/	(16d#\LK	.
.	.	8.B\J)	.
16GG#\LL	.	.	.
16G#\JJ	.	.	.
8r	4a#/ 4cc#/	16f#\LK	.
.	.	8.c#\J	.
(16FF#/LL	.	.	.
16F#/JJ)	.	.	.
=30	=30	=30	=30
8r	4b/ 4dd#/	(16f#\LK	.
.	.	8.d#\J)	.
(16BBB/LL	.	.	.
16BB/JJ)	.	.	.
8r	4a#/ 4cc#/	(16f#\LK	.
.	.	8.c#\J)	.
(16FF#/LL	.	.	.
16F#/JJ)	.	.	.
=31	=31	=31	=31
8r	4b/ 4dd#/	(16f#\LK	.
.	.	8.d#\J)	.
(16BB\LL	.	.	.
16B\JJ)	.	.	.
8r	4cc##/ 4ee#/	16a#\LK	.
.	.	8.e#\J	.
16AA#\LL	.	.	.
16A#\JJ	.	.	.
=32	=32	=32	=32
8r	4dd#/ 4ff#/	16a#\LK	.
.	.	8.f#\J	.
(16DD#/LL	.	.	.
16D#/JJ)	.	.	.
8r	4cc##/ 4ee#/	(16a#\LK	.
.	.	8.e#\J)	.
16AA#\LL	.	.	.
16A\JJ	.	.	.
=33	=33	=33	=33
8r	4dd#/ 4ff#/	16a#\LK	.
.	.	8.f#\J	.
(16D#\LL	.	.	.
16d#\JJ)	.	.	.
8r	4ee#/ 4gg#/	(16cc#\LK	.
.	.	8.g#\J)	.
(16C#\LL	.	.	.
16c#\JJ)	.	.	.
=34	=34	=34	=34
8r	4ff#/ 4aa#/	(16cc#\LK	.
.	.	8.a#\J)	.
16FF#\LL	.	.	.
16F#\JJ	.	.	.
8r	4ff#/ 4bb/	(16dd#\LK	.
.	.	8.b\J)	.
(16f#\LL	.	.	.
16F#\JJ)	.	.	.
=35	=35	=35	=35
8r	4ff#/ 4gg#/	(16b\LK	p
.	.	8.g#\J)	.
16FF#\LL	.	.	.
16F#\JJ	.	.	.
8r	4ff#/ 4aa#/	(16cc#\LK	.
.	.	8.a#\J)	.
(16f#\LL	.	.	.
16F#\JJ)	.	.	.
=36	=36	=36	=36
8r	4ff#/ 4bb/	(16dd#\LK	.
.	.	8.b\J)	.
16FF#\LL	.	.	.
16F#\JJ	.	.	.
8r	4aa#/ 4ccc#/	(16ff#\LK	.
.	.	8.cc#\J)	.
16f#\LL	.	.	.
16F#\JJ	.	.	.
=37	=37	=37	=37
8r	4bb/ 4ddd#/	(16ff#\LK	.
.	.	8.dd#\J)	.
(16BBB/LL	.	.	.
16BB/JJ)	.	.	.
8r	4bb/ 4eee/	(16gg#\LK	.
.	.	8.ee\J)	.
(16B\LL	.	.	.
16BB\JJ)	.	.	.
=38	=38	=38	=38
8r	4bb/ 4ccc#/	(16ee\LK	.
.	.	8.cc#\J)	.
(16BBB/LL	.	.	.
16BB/JJ)	.	.	.
8r	4bb/ 4eee/	16ff#\LK	.
.	.	8.dd#\J	.
16B\LL	.	.	.
16BB\JJ	.	.	.
=39	=39	=39	=39
8r	4bb/ 4eee/	(16gg#\LK	.
.	.	8.ee\J)	.
16BBB/LL	.	.	.
16BB/JJ	.	.	.
8r	4ddd#/ 4fff#/	16bb\LK	.
.	.	8.ff#\J	.
(16B\LL	.	.	.
16BB\JJ)	.	.	.
=40	=40	=40	=40
8r	4bb/ 4ddd#/	16ff#\LK	.
.	.	8.dd#\J	.
(16AAn\LL	.	.	.
16A\JJ)	.	.	.
8r	4bb/ 4eee/	(16gg#\LK	.
.	.	8.ee\J)	.
16G#\LL	.	.	.
16GG#\JJ	.	.	.
=41	=41	=41	=41
8r	4ddd#/ 4fff#/	(16bb\LK	.
.	.	8.aa\J)	.
(16FF#/LL	.	.	.
16F#/JJ)	.	.	.
8r	4eee/ 4ggg#/	(16bb\LK	.
.	.	8.gg#\J)	.
(16E/LL	.	.	.
16EE/JJ)	.	.	.
=42	=42	=42	=42
8r	4ff#/ 4aa/	16ccn\LK	.
.	.	8.a\J	.
16DD#/LL	.	.	.
16D#/JJ	.	.	.
8r	4ee/ 4ggn/ 4aa#/	(16ee\LK	.
.	.	8.a#\J)	.
16C#/LL	.	.	.
16CC#/JJ	.	.	.
=43	=43	=43	=43
8r	4bb/	16dd#\LK	<
.	.	8.b\J	.
(16BBB/LL	.	.	.
16BB/JJ)	.	.	.
8r	4bb/	16gg#\LK	.
.	.	8.b\J	.
16E#/LL	.	.	.
16EE#/JJ	.	.	.
=44	=44	=44	=44
8r	4bb/	(16aan\LK	.
.	.	8.b\J)	.
16FF#/LL	.	.	.
16F#/JJ	.	.	.
8r	4bb/	(16ff#\LK	.
.	.	8.b\J)	.
(16D#/LL	.	.	.
16DD#/JJ)	.	.	.
=45	=45	=45	=45
8r	4bb/	(16dd#\LK	.
.	.	8.b\J)	.
(16BBB/LL	.	.	.
16BB/JJ)	.	.	.
8r	4bb/	(16gg#\LK	.
.	.	8.b\J)	.
16E#/LL	.	.	.
16EE#/JJ	.	.	.
=46	=46	=46	=46
8r	(4bb/	16aa\LK	.
.	.	8.b\J)	.
(16FF#/LL	.	.	.
16F#/JJ)	.	.	.
8r	4bb/	16ee#\LK	.
.	.	8.b\J	.
(16C##/LL	.	.	.
16CC##/JJ)	.	.	.
=47	=47	=47	=47
8r	4bb/	16ff#\LK	.
.	.	8.b\J	.
(16DD#/LL	.	.	.
16D#/JJ)	.	.	.
8r	16gg#/LK	4gg#\	f
.	8.bb/J	.	.
16EEn/LL	.	.	.
[16En/JJ	.	.	.
=48	=48	=48	=48
8E/L]	4bb\	(16bb/LK	.
.	.	8.ff#/J)	.
16DD#/L	.	.	.
[16D#/JJ	.	.	.
8D#/L]	4ee\	(16ee/LK	.
.	.	8.gg#/J)	.
16CC#/L	.	.	.
[16C#/JJ	.	.	.
=49	=49	=49	=49
8C#/L]	(4gg#\	16gg#/LK	.
.	.	8.dd#/J)	.
16BBB/L	.	.	.
[16BB/JJ	.	.	.
8BB/L]	4cc#\	16cc#/LK	.
.	.	8.ee/J	.
(16AAA/L	.	.	.
[16AA/JJ)	.	.	.
=50	=50	=50	=50
8AA/L]	16ee/LK	4ee\	.
.	8.b/J	.	.
(16GGG#/L	.	.	.
[16GG#/JJ)	.	.	.
8GG#/L]	4dd#/ 4ff#/	(16b\LK	.
.	.	8.a\J)	.
(16FFF#/L	.	.	.
[16FF#/JJ)	.	.	.
=51	=51	=51	=51
*^	*	*	*
4r	8FF#/L]	4ee/	(16b\LK	.
.	.	.	8.g#\J)	.
.	(16EEE/L	.	.	.
.	16EE/JJ)	.	.	.
(16G#/LK	4E\	8r	4r	.
8.B/J)	.	.	.	.
.	.	(16g#/LL	.	p
.	.	16b/JJ)	.	.
*	*	*v	*v	*
=52	=52	=52	=52
(16B/LK	4D#\	8r	.
8.F#/J)	.	.	.
.	.	(16b\LL	.
.	.	16ff#\JJ)	.
(16A#/LK	8C#\	8r	.
8.e/J)	.	.	.
.	8r	16ee\ (16ff#\LL	.
.	.	16aa#\JJ)	.
=53	=53	=53	=53
*	*	*^	*
16d#/LK	8BB\	4r	8r	.
[8.B/J	.	.	.	.
.	8r	.	(16aa#\LL	.
.	.	.	16bb\JJ)	.
4r	8B\L]	16cc#/LK	4cc#\	.
.	.	8.ee/J	.	<
.	16AAn\L	.	.	.
.	[16An\JJ	.	.	.
*v	*v	*	*	*
=54	=54	=54	=54
8A\L]	16ee/LK	(4ee\	.
.	8.b/J)	.	.
16GG#\L	.	.	.
[16G#\JJ	.	.	.
8G#\L]	(16b/LK	4an\	.
.	8.aan/J)	.	.
16FF#\L	.	.	.
[16F#\JJ	.	.	.
=55	=55	=55	=55
8F#/L]	16gg#/LK	4g#\ 4b\	.
.	8.ee/J	.	.
(16EE/L	.	.	.
16E/JJ)	.	.	.
8r	(16cc#/LK	4e\ 4a\	.
.	8.ee/J)	.	.
16A\LL	.	.	.
16AA\JJ	.	.	.
=56	=56	=56	=56
8r	(16g#/LK	4e\	.
.	8.ee/J)	.	.
(16BB\LL	.	.	.
16B\JJ)	.	.	.
8r	(16f#/LK	4d#\	.
.	8.dd#/J)	.	.
(16BB/LL	.	.	.
16BBB/JJ)	.	.	.
*	*v	*v	*
=57	=57	=57
*clefG2	*	*
*M3/4	*3/4	*3/4
*MM50	*MM50	*MM50
*^	*^	*
8r	8r	4r	4ddn\ 4ee#\ 4gg#\ 4bb\ [4dddn\	f
16g#'/LL	8B\ 8dn\ 8e#\	.	.	.
16a'/JJ	.	.	.	.
(16b'/LL	8r	4r	8ddd\L]	.
16cc#'/J)	.	.	.	.
8ddn/J	8e#\ 8g#\	.	(16ccc#'\L	p
.	.	.	16bb'\JJ)	<
(16f#/ 16a/LL	4r	16ff#/ (16aa/LL	16cc#\LL	.
16g#/) 16b/	.	16gg#/	16ee#\	.
(16f#'/ 16a'/	.	16aa'/)	16cc#\ 16ff#\	.
16c#'/) 16e#'/ 16g#'/JJ	.	16gg#/ 16bb/JJ	16cc#\ 16ee#\JJ	.
=58	=58	=58	=58	=58
8r	8r	(8bb#/L	4r	f
(32f#/LLL	8A\ 8c#\	[8ccc#/J)	.	.
32e#/	.	.	.	.
32f#/	.	.	.	.
32g#/JJJ	.	.	.	.
32a/LLL	8r	8ccc#/L]	8r	.
32g#/	.	.	.	.
32a/	.	.	.	.
32b/JJJ)	.	.	.	.
8ccn/	8d#\ 8f#\	16bbn/L	8ff#\	p
.	.	16aa/JJ	.	.
(16en/ 16g#/LL	4r	(16gg#/LL	16b\LL	<
(16d#/) 16f#/	.	16ff#/	16a\ 16b\	.
16e'/	.	(16gg#'/)	16g#\ 16b\	.
16c#'/) 16e'/JJ	.	16aa'/JJ)	16a\ 16ee\JJ	.
*v	*v	*	*	*
*	*v	*v	*
=59	=59	=59
8G#/ 8e/L	(16bb\LL	p
.	16ee\	.
8c#/ 8e/ 8a/J	16bb\	.
.	16aa\JJ)	.
8B/ 8e/ 8g#/L	4gg#\	.
8B/ 8e/ 8a#/J	.	.
16B/ 16d#/ 16b/LL	(80ff#\LLLL	<
.	80gg#\	.
.	80ff#\	.
.	80ee#\	.
.	80ff#\JJJJ	.
16B/ 16dn/ 16e#/ 16g#/JJ	64gg#\LLLL	.
.	64aa\	.
.	64bb\	.
.	64ccc#\JJJJ)	.
*clefF4	*	*
8GGG#/ 8GG#/	8ddn\ 8ffn\ 8bb\ 8dddn\	.
=60	=60	=60
*k[]	*k[]	*k[]
[4GGGn/ [4DDn/ 4FFn/ (4GGn/	32dd\ 32ff\ 32bb\ 32ddd\LLL	f
.	32bb\	.
.	32gg\	.
.	32ff\JJJ	.
.	32dd\LLL	.
.	32b\	.
.	32g\	.
.	32f\JJJ	.
16GGG/] 16DD/] 16FF/) 16GG/	(48d/LLL	.
.	48B/	.
.	48G/JJJ)	.
(48F\LLL	16r	.
48D\	.	.
48BB\JJJ)	.	.
64GG/LLLL	16r	.
64BB/	.	.
64D/	.	.
64F/JJJJ	.	.
16r	64G/LLLL	.
.	64B/	.
.	64d/	.
.	64f/JJJJ	.
*clefG2	*	*
64g\LLLL	16r	.
64b\	.	.
64dd\	.	.
64ff\JJJJ	.	.
16r	64dd\LLLL	.
.	64ff\	.
.	64gg\	.
.	64bb\JJJJ	.
*clefF4	*	*
(16GGG/ 16GG/LL	16dd\ 16ff\ (16ddd\LL	>
16CC/) 16C/JJ	16cc\ 16ee\ 16ccc\JJ)	.
=61	=61	=61
*^	*	*
8.r	8CC\ 8EE\ 8GG\ 8C\	48ccc\LLL	ff
.	.	48gg\	.
.	.	48ee\JJJ	.
.	.	48cc\LLL	.
.	.	48g\	.
.	.	48e\JJJ	.
.	8r	48c/LLL	.
.	.	48G/	.
.	.	48E/JJJ	.
48C/LLL	.	16r	.
48GG/	.	.	.
48EE/JJJ	.	.	.
96CC/LLLL	4r	32r	.
96EE/	.	.	.
96GG/JJJJ	.	.	.
96C/LLLL	.	32r	.
96E/	.	.	.
96G/JJJJ	.	.	.
96c/LLLL	.	32r	.
96e/	.	.	.
96g/JJJJ	.	.	.
32r	.	96cc\LLLL	>
.	.	96ee\	.
.	.	96gg\JJJJ	.
(16GGG/ 16GG/LL	.	16cc\ 16ee\ (16ccc\LL	<
16GGG#/) 16GG#/JJ	.	16b\ 16ee\ 16bb\JJ)	.
8GGG#/ 8EE/ 8GG#/L	4r	8b\ 8ee\ 8bb\L	.
[8GGG#/ [8EE/ [8GG#/J	.	8b\ [8ee\ [8bb\J	>
*v	*v	*	*
=62	=62	=62
*k[f#c#g#d#]	*k[f#c#g#d#]	*k[f#c#g#d#]
16GGG#/] 16EE/] 16GG#/LL]	32b\ 32ee\] (32bb\LLL]	p
.	32ee\	.
16GG#/ 16BB/ 16E/JJ	32dd#\	.
.	32ee\	.
16r	32dd#\	.
.	32ee\	.
16C#\ 16E\ 16A\	32bb\	.
.	32aa\JJJ)	.
16r	(32gg#\LLL	.
.	32dd#\	.
16BB\ 16E\ 16G#\	32ee\	.
.	32dd#\JJJ)	.
*clefG2	*	*
(48gg#\LLL	(48eee\LLL	<
48ee\	48ccc#\	.
48ff#\	48ddd#\	.
48dd#\	48bb\	.
48ee\	48ccc#\	.
48cc#\JJJ)	48aa\JJJ)	.
(48dd#\LLL	(48bb\LLL	.
48b\	48gg#\	.
48cc#\	48aa\	.
48a\	48ff#\	.
48b\	48gg#\	.
48g#\JJJ)	48ee\JJJ)	.
(48a/LLL	(48ff#\LLL	.
48f#/	48dd#\	.
48g#/	48ee\	.
48e/	48cc#\	.
48f#/	48dd#\	.
48d#/JJJ)	48b\JJJ)	.
*clefF4	*	*
=63	=63	=63
(48e\LLL	(48cc#/LLL	.
48c#\	48a/	.
48d#\	48b/	.
48B\	48g#/	.
48c#\	48a/	.
48A\JJJ)	48f#/JJJ)	.
(48B\LLL	(48g#/LLL	.
48G#\	48e/	.
48A\	48f#/	.
48F#\	48d#/	.
48G#\	48e/	.
48E\JJJ)	48c#/JJJ)	.
*	*clefF4	*clefF4
(48F#\LLL	(48d#\LLL	.
48D#\	48B\	.
48E\	48c#\	.
48C#\	48A\	.
48D#\	48B\	.
48BB\JJJ)	48G#\JJJ)	.
(48C#/LLL	(48A\LLL	.
48AA/	48F#\	.
48BB/	48G#\	.
48GG#/	48E\	.
48AA/	48F#\	.
48FF#/JJJ)	48D#\JJJ)	>
(48GG#/LLL	(48E\LLL	.
48EE/	48C#\	.
48FF#/	48D#\	.
48DD#/	48BB\	.
48EE/	48C#\)	.
48CC#/JJJ)	48AA#\JJJ	.
(24BBB/LL	(48BB/LLL	.
.	48AAn/	.
24CC#/	48BB/	.
.	48GG#/	.
24DD#/JJ)	48BB/	.
.	48FF#/JJJ)	.
=64	=64	=64
4EEE/	(48EE/LLL	.
.	48BB/	.
.	48GG#/	.
.	48E/	.
.	48BB/	.
.	48G#/JJJ	.
.	48E\LLL)	.
.	48B\	.
.	48G#\	.
.	48e\	.
.	48B\	.
.	48g#\JJJ	.
*	*clefG2	*clefG2
4r;	(48e;\LLL	.
.	48b\	.
.	48g#\	.
.	48ee\	.
.	48b\	.
.	(48gg#\JJJ)	.
.	40ee\LLL	.
.	40bb\	.
.	40gg#\	.
.	40eee\	.
.	40bb\JJJ	.
4r	(8ggg#\L)	.
.	8eee\J)	.
=65	=65	=65
*M2/4	*M2/4	*M2/4
*MM152	*MM152	*MM152
*	*^	*
4r	4r	(8bb\L	.
.	.	8bb#\J)	.
8r	(16ccc#/LK	4ccc#\	.
.	8.eee/J)	.	.
*clefG2	*	*	*
16a\LL	.	.	.
16ee\JJ	.	.	.
=66	=66	=66	=66
8r	4eee\	(16eee/LK	.
.	.	8.bbn/J)	.
16ee\LL	.	.	.
16g#\JJ	.	.	.
8r	4aa\	(16aa/LK	.
.	.	8.bb/J)	.
16f#\LL	.	.	.
16dd#\JJ	.	.	.
=67	=67	=67	=67
*^	*	*	*
4r	8r	(16bb/LK	4bb\	.
.	.	8.gg#/J)	.	.
.	16ee\LL	.	.	.
.	16e\JJ	.	.	.
(16cc#/LK	4a\	4r	8r	.
8.ee/J)	.	.	.	.
.	.	.	(16ccc#\LL	.
.	.	.	16eee\JJ)	.
*	*	*v	*v	*
=68	=68	=68	=68
16ee/LK	4g#\	8r	.
8.b/J	.	.	.
.	.	(16eee\LL	.
.	.	16bb\JJ)	.
(16a/LK	4f#\	8r	.
8.b/J)	.	.	.
.	.	(16bb\LL	.
.	.	16ddd#\ 16fff#\JJ)	.
=69	=69	=69	=69
*	*	*^	*
16b/LK	4e\	4r	8r	.
8.g#/J	.	.	.	.
.	.	.	16eee\ (16ggg#\LL	.
.	.	.	16bb\JJ)	.
4r	8r	16ff#/LK	4ff#\	.
.	.	8.bb/J	.	.
.	(16dd#\LL	.	.	.
.	16b\JJ)	.	.	.
*v	*v	*	*	*
=70	=70	=70	=70
8r	(16gg#/LK	4gg#\	<
.	8.bb/J)	.	.
(16ee\LL	.	.	.
16b\JJ)	.	.	.
8r	16aa/LK	4aa\	.
.	8.bb/J	.	.
(16ff#\LL	.	.	.
16b\JJ)	.	.	.
=71	=71	=71	=71
*^	*	*	*
4r	8r	16bb/LK	4bb\	.
.	.	8.eee/J	.	.
.	(16gg#\LL	.	.	.
.	16b\JJ)	.	.	.
(16f#/LK	4d#\	4r	8r	.
8.b/J)	.	.	.	.
.	.	.	(16bb\LL	.
.	.	.	16ff#\JJ)	.
*	*	*v	*v	*
=72	=72	=72	=72
(16g#/LK	4e\	8r	.
8.b/J)	.	.	.
.	.	(16bb\LL	.
.	.	16gg#\JJ)	.
(16a/LK	4f#\	8r	.
8.b/J)	.	.	.
.	.	(16bb\LL	.
.	.	16aa\JJ)	.
=73	=73	=73	=73
*	*	*^	*
(16b/LK	4g#\	4r	8r	.
8.ee/J)	.	.	.	.
.	.	.	(16bb\LL	.
.	.	.	16gg#\JJ)	.
4r	8r	(16ff#/LK	4b\ 4dd#\	.
.	.	8.bb/J)	.	.
.	(16f#/ 16a/LL	.	.	.
.	16B/JJ)	.	.	.
*v	*v	*	*	*
=74	=74	=74	=74
8r	(16gg#/LK	4b\ 4ee\	<
.	8.bb/J)	.	.
(16e/ 16g#/LL	.	.	.
16B/JJ)	.	.	.
8r	(16aa/LK	4b\ 4ff#\	.
.	8.bb/J)	.	.
(16d#/ 16f#/LL	.	.	.
16B/JJ)	.	.	.
*clefF4	*	*	*
*	*v	*v	*
=75	=75	=75
4r	4r	.
4BB\ 4F#\ 4A\	4B/ 4d#/ 4f#/	p
=76	=76	=76
4r	4r	.
4BB\ 4E\ 4G#\	4B/ 4e/ 4g#/	.
=77	=77	=77
4r	4r	.
4BB#\ 4D#\ 4F#\ 4A\	4B#/ 4d#/ 4f#/ 4a/	.
=78	=78	=78
4C#\ 4E\ 4G#\	4c#/ 4e/ 4g#/	.
[4AA\ [4C#\ 4E#\	[4c#/ 4e#/ [4cc#/	.
=79	=79	=79
*^	*	*
4C#/] 4F#/	2AA\_	4c#/] 4f#/ 4cc#/]	.
4Dn/ 4E#/ 4G#/	.	4B/ 4dn/ 4e#/ 4g#/ 4b/	.
=80	=80	=80	=80
4C#/ 4F#/	2AA\_	4A/ 4c#/ 4f#/ 4a/	.
4BB/ 4Dn/ 4E#/	.	4G#/ 4B/ 4dn/ 4e#/ 4g#/	.
*v	*v	*	*
=81	=81	=81
4AA/] 4C#/ 4F#/	4A/ 4c#/ 4f#/ 4a/	.
4AAA#/ 4AA#/	4F#/ 4c#/	.
=82	=82	=82
4BBB/ 4BB/	4E/ 4G#/ 4B/ 4e/	.
4CCn/ 4Cn/	4F#/ 4A/ 4d#/	.
=83	=83	=83
4BBB/ 4BB/	4G#/ 4B/ 4e/	.
4AAA/ 4AA/	4F#/ 4cn/ 4d#/ 4f#/	.
=84	=84	=84
*^	*	*
4GG#/	4GGG#\	4B/ 4e/ 4g#/	.
(8.FF#/L	4FFF#\	4A#/ 4e/ [4cc#/	.
16GG#/Jk	.	.	.
=85	=85	=85	=85
*	*	*^	*
4AAn/	2BBB\	4cc#/]	2f#\	.
4BB/)	.	4b/	.	.
*v	*v	*	*	*
=86	=86	=86	=86
8r	4g#/	16g#\LK	.
.	.	8.B\J	p
(16EE/LL	.	.	.
16E/JJ)	.	.	.
8r	(16A/LK	4A\	<
.	8.a/J)	.	.
(16Cn/LL	.	.	.
16EE/JJ)	.	.	.
=87	=87	=87	=87
8r	4f#/	16f#\LK	.
.	.	8.A\ 8.cn\J	.
(16EE/LL	.	.	.
16D#/JJ)	.	.	.
8r	16B/LK	4G#\	.
.	8.e/J	.	.
(16E/LL	.	.	.
16EE/JJ)	.	.	.
*	*v	*v	*
=88	=88	=88
*^	*	*
16r	8r	4d#/	.
8.F#/ 8.A/	.	.	.
.	16EE\LL	.	.
.	16Cn\JJ	.	.
4E/	8r	16G#\LK	.
.	.	8.e\J	.
.	(16BB\LL	.	.
.	16EE\JJ)	.	.
=89	=89	=89	=89
16A/LK	8r	(4cn/	>
8.E/J	.	.	.
.	16EE\LL	.	.
.	16C#\JJ	.	.
16A/LK	8r	4B/)	.
8.F#/J	.	.	.
.	16D#\LL	.	.
.	16EE\JJ	.	.
*v	*v	*	*
=90	=90	=90
*	*^	*
8r	4c#/	(16c#\LK	.
.	.	8.G#\J	.
(16EE/LL	.	.	.
16E/JJ)	.	.	.
8r	4B/	16B\LK)	.
.	.	8.G#\J	.
(16E/LL	.	.	.
16EE/JJ)	.	.	.
*	*v	*v	*
=91	=91	=91
*^	*	*
16A/LK	8r	(4cn/	pp
8.F#/J	.	.	.
.	16EE\LL	.	.
.	16D#\JJ	.	.
16A/LK	8r	4B/)	<
8.F#/J	.	.	.
.	16D#\LL	.	.
.	16EE\JJ	.	.
*v	*v	*	*
=92	=92	=92
*	*^	*
8r	(4c#/	16c#\LK	.
.	.	8.G#\J	.
(16EE/LL	.	.	.
16E/JJ)	.	.	.
8r	(4B/)	16B\LK	.
.	.	8.G#\J)	.
(16D#\LL	.	.	.
16E\JJ)	.	.	.
=93	=93	=93	=93
8r	(4a/	16a\LK	.
.	.	8.B\J)	.
(16D#\LL	.	.	.
16E\JJ)	.	.	.
8r	(4g#/	16g#\LK	.
.	.	8.B\J)	.
(16d#\LL	.	.	.
16e\JJ)	.	.	.
=94	=94	=94	=94
8r	(4cc#/	16cc#\LK	.
.	.	8.g#\J	.
(16E\LL	.	.	.
16e\JJ)	.	.	.
8r	(4b/)	16b\LK	.
.	.	8.g#\J)	.
(16d#\LL	.	.	.
16e\JJ)	.	.	.
=95	=95	=95	=95
8r	4aa/	(16aa\LK	.
.	.	8.b\J	.
*clefG2	*	*	*
(16d#/LL	.	.	.
16e/JJ)	.	.	.
8r	4gg#/)	16gg#\LK	.
.	.	8.b\J	.
(16dd#\LL	.	.	.
16ee\JJ)	.	.	.
=96	=96	=96	=96
8r	(4ccc#/	16ccc#\LK	.
.	.	8.gg#\J	.
16e/LL	.	.	.
16ee/JJ	.	.	.
8r	4bb/)	16bb\LK	.
.	.	8.gg#\J	.
(16dd#\LL	.	.	.
16ee\JJ)	.	.	.
=97	=97	=97	=97
8r	(4ccc#/	16ccc#\LK	.
.	.	8.gg#\J)	.
(16ddd#\LL	.	.	.
16eee\JJ)	.	.	.
8r	4bb/	16bb\LK	p
.	.	8.gg#\J	.
(16ggg#\LL	.	.	.
16bbb\JJ)	.	.	.
*	*v	*v	*
=98	=98	=98
8r	8r	.
*clefF4	*clefF4	*clefF4
[4.EE/ [4.GG#/ [4.BB/	[4.E\ [4.G#\ [4.B\	p
=99	=99	=99
4EE;/] 4GG#;/] 4BB;/]	4E;\] 4G#;\] 4B;\]	.
*	*clefG2	*clefG2
=100	=100	=100
*k[f#]	*k[f#]	*k[f#]
*MM240	*MM240	*MM240
*M6/8	*M6/8	*M6/8
2.EE/ 2.E/	[4.g/	ff
.	(8g/L]	.
.	8e/	.
.	8b/J)	.
=101	=101	=101
2.DD/ 2.D/	[4.b\	.
.	(8b\L]	.
.	8g\	.
.	8ee\J)	.
=102	=102	=102
*	*^	*
4.CC/ 4.C/	(4ee/	4r	.
.	8ff#/	8r	.
4.AAA/ 4.AA/	4gg/	4.cc\	.
.	8ff#/)	.	.
=103	=103	=103	=103
2.BBB/ 2.BB/	(4.ee/	2.f#\	.
.	4dd#/)	.	.
.	8r	.	.
*	*v	*v	*
=104	=104	=104
2.AAA/ 2.AA/	[4.cc\	.
.	(8cc\L]	.
.	8a\	.
.	8ee\J)	.
=105	=105	=105
2.GGG/ 2.GG/	[4.ee\	.
.	(8ee\L]	.
.	8b\	.
.	8bb\J)	.
=106	=106	=106
*	*^	*
4.FFF#/ 4.FF#/	(8bb/L	4.ee\	.
.	8ccc/	.	.
.	8aa/J	.	.
4.BBB/ 4.BB/	8gg/L	4.dd#\	.
.	8ff#/	.	.
.	8bb/J)	.	.
*	*v	*v	*
=107	=107	=107
4EE/ 4E/	4ee\	.
8r	8r	.
4r	4r	.
8r	8r	.
=108	=108	=108
*^	*	*
8r	2.BB\	[4.a/	p
8F#/L	.	.	.
8G/J	.	.	.
4.A/	.	8a/L]	.
.	.	8g/	.
.	.	8f#/J	.
=109	=109	=109	=109
8r	2.BB\	[4.b/	.
8G/L	.	.	.
8A/J	.	.	.
4.B/	.	8b/L]	.
.	.	8a/	.
.	.	8g/J	.
=110	=110	=110	=110
*	*	*^	*
4.A/	[2.BB\	(4cc/	4.f#\	<
.	.	[8ff#/	.	.
4.A#/	.	4ff#/]	4.g\	.
.	.	8ee/	.	.
=111	=111	=111	=111	=111
4.B/	2.BB\]	4dd#/	4.f#\	.
.	.	8ff#/	.	.
4.E/	.	4gg/	4.g\	>
.	.	8ee/)	.	.
*	*	*v	*v	*
=112	=112	=112	=112
8r	2.BB\	[4.a/	.
8F#/L	.	.	.
8G/J	.	.	.
4.A/	.	8a/L]	.
.	.	8g/	.
.	.	8f#/J	.
=113	=113	=113	=113
8r	2.BB\	[4.b/	.
8G/L	.	.	.
8A/J	.	.	.
4.B/	.	8b/L]	.
.	.	8a/	.
.	.	8g/J	.
=114	=114	=114	=114
*	*	*^	*
4.A/	[2.BB\	(4cc/	4.f#\	<
.	.	[8ff#/	.	.
4.A#/	.	4ff#/]	4.g\	.
.	.	8ee/	.	.
=115	=115	=115	=115	=115
4.B/	2.BB\]	4dd#/	4.f#\	.
.	.	8ff#/	.	.
4.E/	.	8ee/L	8g\	>
.	.	8f#/	8r	.
.	.	8g/J)	8r	.
=116	=116	=116	=116	=116
8r	2.BB\	[4.a/	8r	.
8F#/L	.	.	8f#\L	.
8G/J	.	.	8e\J	.
4A/	.	8a/L]	4d#\	.
.	.	8g/	.	.
8r	.	8f#/J	8r	.
=117	=117	=117	=117	=117
8r	2.BB\	[4.b/	8r	.
8G/L	.	.	8g\L	.
8A/J	.	.	8f#\J	.
4B/	.	8b/L]	4e\	.
.	.	8a/	.	.
8r	.	8g/J	8r	.
=118	=118	=118	=118	=118
4.A/	[2.BB\	(4cc/	8r	<
.	.	.	[4f#\	.
.	.	[8ff#/	.	.
4.A#/	.	4ff#/]	8f#\]	.
.	.	.	[4g\	.
.	.	8ee/	.	.
=119	=119	=119	=119	=119
4.B/	2.BB\]	4dd#/	8g\]	.
.	.	.	4f#\	.
.	.	[8ff#/	.	.
4.E/	.	8ff#/L]	4.g\	>
.	.	8gg/	.	.
.	.	8ee/J)	.	.
=120	=120	=120	=120	=120
8r	2.BB\	[4.a/	8r	.
8F#/L	.	.	8f#\L	.
8G/J	.	.	8e\J	.
4A/	.	8a/L]	4d#\	.
.	.	8g/	.	.
8r	.	8f#/J	8r	.
=121	=121	=121	=121	=121
8r	2.BB\	[4.b/	8r	.
8G/L	.	.	8g\L	.
8A/J	.	.	8f#\J	.
4B/	.	8b/L]	4e\	.
.	.	8a/	.	.
8r	.	8g/J	8r	.
=122	=122	=122	=122	=122
4.A/	2.BB\	(4cc/	8r	.
.	.	.	[4f#\	.
.	.	[8ff#/	.	.
4.A#/	.	4ff#/]	8f#\]	.
.	.	.	[4g\	.
.	.	8ee/	.	.
*v	*v	*	*	*
=123	=123	=123	=123
4.BB\ 4.B\	4dd#/	8g\]	.
.	.	4f#\	.
.	8ff#/	.	.
4EE/ 4E/	4ee/)	4g\	>
8r	8r	8r	.
*	*v	*v	*
*	*clefF4	*clefF4
=124	=124	=124
4GG/	(4G\	p
8FF#/	8F#\	.
4DD#/	4D#\	.
8EE/	8E\	.
=125	=125	=125
4.BBB/	4.BB/)	.
4BBB/	4BB/	.
8BBB/	8BB/	.
=126	=126	=126
(4.BBB/	(4.BB/	.
4AAA/	4AA/	.
8BBB/)	8BB/)	.
=127	=127	=127
(4.CC/	(4.C/	.
4.BBB/)	4.BB/)	.
*	*clefG2	*clefG2
=128	=128	=128
4EE/	(4gg\	.
8r	8ff#\	.
4r	4dd#\	.
8r	8ee\)	.
=129	=129	=129
*	*^	*
4r	4.b/	4r	.
(8f#\	.	8a\	.
4e\	4b/	4g\	.
8d#\	8b/	8f#\	.
=130	=130	=130	=130
4e\	4.b/	4g\	.
8dn\	.	8f#\	.
4c#\	4a#/	4e\	.
8B\	8b/	8d\	.
=131	=131	=131	=131
4A#\	4.cc#/	4.c#\	.
8G\	.	.	.
4F#\	4.ddn/	[4.b\	>
8E#\)	.	.	.
=132	=132	=132	=132
*^	*	*	*
4.F#/	2.F#\	[4.cc#/	8b\L]	p
.	.	.	8f#\	.
.	.	.	8a#\J	.
8A#/L	.	8cc#/L]	[4.f#\	.
8B/	.	8dd/	.	.
8c#/J	.	8ee/J	.	.
=133	=133	=133	=133	=133
[4.B/	2.F#\	[4.dd/	8f#\L]	.
.	.	.	8f#\	.
.	.	.	8b\J	.
8B/L]	.	8dd/L]	[4.f#\	.
8c#/	.	8ee/	.	.
8d/J	.	8ff#/J	.	.
*v	*v	*	*	*
=134	=134	=134	=134
8F#\L	(4ee/	4.f#\]	<
8c#\	.	.	.
8d\J	8ff#/	.	.
8F#\L	4gg/	4a#\	.
8e\	.	.	.
8d\J	8ff#/	8b\	.
=135	=135	=135	=135
8F#\L	4ee/	8cc#\	.
8c#\	.	[4f#\	.
8B\J	8dd/	.	.
8F#\L	4cc#/	4.f#\]	.
8A#\	.	.	.
8B\J	8dd/)	.	.
=136	=136	=136	=136
*^	*	*	*
8F#/L	2.F#\	[4.cc#/	8cc#\L	.
8A#/	.	.	8a#\	.
8c#/J	.	.	[8f#\J	.
8A#/L	.	8cc#/L]	4.f#\]	.
8B/	.	8dd/	.	.
8c#/J	.	8ee/J	.	.
=137	=137	=137	=137	=137
8F#/L	2.F#\	[4.dd/	8dd\L	.
8B/	.	.	8b\	.
8d/J	.	.	[8f#\J	.
8B/L	.	8dd/L]	4.f#\_	.
8c#/	.	8ee/	.	.
8d/J	.	8ff#/J	.	.
*v	*v	*	*	*
*	*v	*v	*
=138	=138	=138
8F#\L	4f#\] (4ee\	.
8c#\	.	.
8d\J	8f#\ 8ff#\	.
8F#\L	4g\ 4gg\	.
8e\	.	.
8d\J	8f#\ 8ff#\	.
=139	=139	=139
8F#\L	4g\ 4gg\	.
8e\	.	.
8f#\J	8a#\ 8aa#\	.
8F#\L	4b\ 4bb\	.
8g\	.	.
8f#\J	8a#\ 8aa#\	.
=140	=140	=140
8F#/L	4b\ 4bb\	.
*clefG2	*	*
8g/	.	.
8a#/J	8cc#\ 8ccc#\	.
8b/L	4dd\ 4ddd\	.
8B/	.	.
8a#/J	8cc#\ 8ccc#\	.
=141	=141	=141
8b/L	4dd\ 4ddd\	.
8B/	.	.
8a#/J	8cc#\ 8ccc#\	.
4b/	4dd\ 4ddd\	.
*clefF4	*	*
8BB/	8ff#\ [8ddd\	.
=142	=142	=142
8C#\L	4ee#\ 4ddd\])	p
8E#\	.	.
8G#\J	[8dd\	.
8C#\L	(8dd\L]	.
8D#\	8cc#\	.
8E#\J	8b\J)	.
=143	=143	=143
8C#\L	(4b\	.
8A\	.	.
8F#\J	8g#/	.
8Cn\L	4an/	.
8F#\	.	.
8D#\J	[8ff#\)	.
=144	=144	=144
8BB\L	(4ff#\]	.
8D#\	.	.
8F#\J	8ccn\	.
8BB\L	4b\	.
8C#\	.	.
8D#\J	8a\)	.
=145	=145	=145
8BB\L	(4a/	.
8Gn\	.	.
8E\J	8f#/	.
8BB-\L	4gn/	.
8E\	.	.
8C#\J	[8ee\)	.
=146	=146	=146
8AA/L	4ee\]	.
8C#/	.	.
8E/J	[8b-\	.
8AA/L	8b-/L]	.
8BBn/	8a/	.
8C#/J	8g/J	.
=147	=147	=147
8AA/L	(4g/	.
8Fn/	.	.
8D/J	8e/	.
8AA-/L	4fn/	.
8D/	.	.
8BB/J	[8ffn\)	.
=148	=148	=148
*^	*	*
8GG/L	2.GG\	2.ff\_	<
8AAn/	.	.	.
8BB/J	.	.	.
8C/L	.	.	.
8D/	.	.	.
8BB/J	.	.	.
=149	=149	=149	=149
8GG/L	4.GG\	(4ff\]	.
8C/	.	.	.
8E/J	.	8ee\	.
8GG/L	4.FFn\	4dd\	.
8BB/	.	.	.
8D/J	.	8gg\)	p
=150	=150	=150	=150
8FF#/L	2.FF#\	4r	.
8GG/	.	.	.
8BB/J	.	8r	.
8D/L	.	(4gg\	.
8BB/	.	.	.
8GG/J	.	8dd\	.
=151	=151	=151	=151
8EE/L	2.EE\	4gg''\)	.
8GG/	.	.	.
8C/J	.	8r	.
8E/L	.	4gg\	.
8C/	.	.	.
8GG/J	.	8r	.
=152	=152	=152	=152
8FFn/L	2.FF\	4r	.
8GG/	.	.	.
8BB/J	.	8r	.
8D/L	.	(4ggg\	pp
8BB/	.	.	.
8GG/J	.	8ddd\	.
=153	=153	=153	=153
8EE/L	2.EE\	4ggg''\)	.
8GG/	.	.	.
8C/J	.	8r	.
8E/L	.	4ggg\	.
8C/	.	.	.
8GG/J	.	8r	.
*v	*v	*	*
=154	=154	=154
*	*^	*
2.FFFn/ 2.FFn/	4r	(8B\L	<
.	.	8d\	.
.	8r	8cn\J	.
.	4g/	8B\L	.
.	.	8A#\	.
.	8d/	8B\J)	.
=155	=155	=155	=155
2.FFF#/ 2.FF#/	4f#/	8d\L	.
.	.	8B\	.
.	8r	8F#\J	.
.	4f#/	8c#\L	.
.	.	8A#\	.
.	8r	8F#\J	f
*	*v	*v	*
=156	=156	=156
*^	*	*
8F#/L	4FF#\	4.r	.
8G#/	.	.	.
8A#/J	8r	.	.
4.r	4FF#\ 4F#\	8B/L	.
.	.	8c#/	.
.	8r	8d/J	.
*v	*v	*	*
=157	=157	=157
4FF#/ 4F#/	8e/L	.
.	8f#/	.
8r	8g#/J	.
4FF#/ 4F#/	8a#/L	.
.	8b/	.
8r	8cc#/J	.
=158	=158	=158
4.DD/ 4.D/	8dd\L	.
.	8ee\	.
.	8ff#\J	.
4.CC#/ 4.C#/	8gg#\L	.
.	8aa\	.
.	8aa#\J	.
=159	=159	=159
4.BBB/ 4.BB/	8bb\L	.
.	8aa#\	.
.	8bb\J	.
4AAAn/ 4AAn/	8ccc#\L	.
.	8ddd\	.
8GGG/ 8GG/	8eee\J	.
=160	=160	=160
8FFF#/ 8FF#/L	4ff#\ 4fff#\	.
8GG#/	.	.
8AA#/J	8r	.
8BB/L	4ff#\ 4fff#\	.
8C#/	.	.
8D/J	8r	.
=161	=161	=161
8E\L	4ff#\ 4fff#\	.
8F#\	.	.
8G#\J	8r	.
8A#\L	4ff#\ 4fff#\	.
8B\	.	.
8c#\J	8r	.
*clefG2	*	*
=162	=162	=162
8d/L	4.dd\ 4.ddd\	.
8e/	.	.
8f#/J	.	.
8g#/L	4.ccc#\	.
8a/	.	.
8a#/J	.	.
=163	=163	=163
8b\L	4.bb\	.
8a#\	.	.
8b\J	.	.
8cc#\L	4aan\	.
8dd\	.	.
8ee\J	8ggn\	.
=164	=164	=164
4f#/	4ff#\	.
8r	8r	.
*clefF4	*	*
4FF#/ 4F#/	4f#\ 4ff#\	.
8r	8r	.
=165	=165	=165
*	*^	*
2.BBB/ 2.BB/	4bb/	[4.b\	f
.	8r	.	.
.	4.r	(8b\L]	.
.	.	8f#\	.
.	.	8dd\J)	.
*	*v	*v	*
=166	=166	=166
2.AAA/ 2.AA/	(8dd\L	.
.	8b\	.
.	8ff#\J)	.
.	(8ff#\L	.
.	8dd\	.
.	8bb\J)	.
=167	=167	=167
4.GGGn/ 4.GGn/	8bb\L	>
.	8eee\	.
.	8ddd\J	.
(4.EE/	8ccc#\L	.
.	8ddd\	.
.	8bb\J	.
=168	=168	=168
4.FF#/	8aa#\L	.
.	8gg\	.
.	8ff#\J	.
4GG#/	8ee\L	.
.	8dd\	.
8AA#/)	8cc#\J	.
=169	=169	=169
8BBB/L	2.b\	p
8BB/	.	.
8BBB/J	.	.
8BB/L	.	.
8BBB/	.	.
8BB/J	.	.
=170	=170	=170
8BBB/L	2.an/	.
8BB/	.	.
8BBB/J	.	.
8BB/L	.	.
8BBB/	.	.
8BB/J	.	.
=171	=171	=171
*	*^	*
8BBB/L	2.ee/	4.g\	.
8BB/	.	.	.
8BBB/J	.	.	.
8BB/L	.	4.e\	.
8BBB/	.	.	.
8BB/J	.	.	.
=172	=172	=172	=172
8BBB/L	2.dd/	2.f#\	.
8BB/	.	.	.
8BBB/J	.	.	.
8BB/L	.	.	.
8BBB/	.	.	.
8BB/J	.	.	.
=173	=173	=173	=173
8BBB/L	4.cc#/	2.e\	.
8BB/	.	.	.
8BBB/J	.	.	.
8BB/L	4.a#/	.	.
8BBB/	.	.	.
8BB/J	.	.	.
=174	=174	=174	=174
8BBB/L	2.b/	2.d\	.
8BB/	.	.	.
8BBB/J	.	.	.
8BB/L	.	.	.
8BBB/	.	.	.
8BB/J	.	.	.
=175	=175	=175	=175
8BBB/L	2.an/	4.cn\	.
8BB/	.	.	.
8BBB/J	.	.	.
8BB/L	.	4.A\	.
8BBB/	.	.	.
8BB/J	.	.	.
=176	=176	=176	=176
8BBB/L	2.g/	2.B\	.
8BB/	.	.	.
8BBB/J	.	.	.
8BB/L	.	.	.
8BBB/	.	.	.
8BB/J	.	.	.
=177	=177	=177	=177
8BBB/L	4.f#/	2.A\	.
8BB/	.	.	.
8BBB/J	.	.	.
8BB/L	4.d#/	.	.
8BBB/	.	.	.
8BB/J	.	.	.
=178	=178	=178	=178
8CC/L	2.e/	2.G\	.
8C/	.	.	.
8CC/J	.	.	.
8C/L	.	.	.
8CC/	.	.	.
8C/J	.	.	.
*	*v	*v	*
*	*clefF4	*clefF4
=179	=179	=179
*	*^	*
8CC/L	2.A/	4.Fn\	.
8C/	.	.	.
8CC/J	.	.	.
8C/L	.	4.D\	.
8CC/	.	.	.
8C/J	.	.	.
*	*v	*v	*
*	*clefG2	*clefG2
=180	=180	=180
*	*^	*
8CC/L	2.g/	2.e\	.
8C/	.	.	.
8CC/J	.	.	.
8C/L	.	.	.
8CC/	.	.	.
8C/J	.	.	.
=181	=181	=181	=181
8CC/L	4.fn/	2.A-\	.
8C/	.	.	.
8CC/J	.	.	.
8C/L	4.d/	.	.
8CC/	.	.	.
8C/J	.	.	.
=182	=182	=182	=182
2.C/)	4.e/	4.G\	.
.	[4.cc/	4.e\	.
=183	=183	=183	=183
2.D\	4.cc/]	4.a-\	.
.	4.b/	4.fn\	.
=184	=184	=184	=184
*^	*	*	*
2.G/	2.E\	4r	4r	.
.	.	8r	8r	.
.	.	4.cc/	4.cc\	.
=185	=185	=185	=185	=185
2.A/	2.F#\	4.ee/	4.cc\	.
.	.	4.dd#/	4.b\	.
=186	=186	=186	=186	=186
2.G#/	4r	2.e/	4.B\	.
.	8r	.	.	.
.	4.BB\	.	[4.dn\	.
=187	=187	=187	=187	=187
2.A/	4.AA\	2.fn/	4.d\]	.
.	4.C\	.	4.c\	.
=188	=188	=188	=188	=188
4r	2.BB\	2.dd/	4r	p
8r	.	.	8r	.
4.G#/	.	.	4.fn\	.
=189	=189	=189	=189	=189
4.A/	2.C\	2.cc/	4.e\	.
4.E/	.	.	4.a\	.
*v	*v	*	*	*
=190	=190	=190	=190
4.D\	4.b/	4.d\ 4.fn\	.
4.Fn\	4.g#/	4.B\ 4.d\	.
=191	=191	=191	=191
2.D#\	2.c/ 2.a/	4.c\	.
.	.	(4.f#\	.
=192	=192	=192	=192
2.EE/	4.f#\	2.B/ 2.gn/)	.
.	[4.e\	.	.
=193	=193	=193	=193
2.FF#/	4.e\]	2.A/ 2.f#/	.
.	4.d#\	.	.
*	*v	*v	*
=194	=194	=194
4.GG/	4.B/ 4.e/	.
4.EE/	4.B/ 4.g/	.
=195	=195	=195
2.FF#;/	2.A#;/ 2.f#;/	.
*clefG2	*	*
=196	=196	=196
2.g/	2.b\ 2.ee\	pp
=197	=197	=197
2.f#/	2.a\ 2.dd#\ 2.ff#\	.
=198	=198	=198
(4.e/	[4.b\ (4.gg\	.
4.g/)	4.b\] 4.ee\)	.
=199	=199	=199
2.f#/	2.a#\ 2.ff#\	.
=200	=200	=200
4.g/	4.b\ (4.ee\	.
4.e/	4.b\ 4.gg\	.
=201	=201	=201
4f#/	4a#\ 4cc#\ 4ff#\)	pp
8r	8r	.
4r	4r	.
8r	8r	.
=202	=202	=202
4f#/	4b\ 4dd\ 4ff#\	.
8r	8r	.
4r	4r	.
8r	8r	.
=203	=203	=203
4f#/	4a#\ 4cc#\ 4ff#\	.
8r	8r	.
4r	4r	.
8r	8r	.
*clefF4	*	*
=204	=204	=204
2.EE/ 2.E/	[4.g/	ff
.	(8g/L]	.
.	8e/	.
.	8b/J)	.
=205	=205	=205
2.DD/ 2.D/	[4.b\	.
.	(8b\L]	.
.	8g\	.
.	8ee\J)	.
=206	=206	=206
*	*^	*
4.CC/ 4.C/	4ee/	4r	.
.	8ff#/	8r	.
4.AAA/ 4.AA/	4gg/	4.ccn\	.
.	8ff#/	.	.
=207	=207	=207	=207
2.BBB/ 2.BB/	(4.ee/	2.f#\	.
.	4dd#/)	.	.
.	8r	.	.
*	*v	*v	*
=208	=208	=208
2.AAA/ 2.AA/	[4.cc\	.
.	(8cc\L]	.
.	8a\	.
.	8ee\J)	.
=209	=209	=209
2.GGG/ 2.GG/	[4.ee\	.
.	(8ee\L]	.
.	8b\	.
.	8bb\J)	.
=210	=210	=210
*	*^	*
4.FFF#/ 4.FF#/	(8bb/L	4.ee\	.
.	8ccc/	.	.
.	8aa/J	.	.
4.BBB/ 4.BB/	8gg/L	4.dd#\	.
.	8ff#/	.	.
.	8bb/J)	.	.
*	*v	*v	*
=211	=211	=211
[4.GG/	4.e\ 4.ee\	ff
(8GG/L]	[4.ee\ [4.eee\	.
8EE/	.	.
8BB/J)	.	.
=212	=212	=212
[4.BB/	4.ee\] 4.eee\]	.
(8BB/L]	4ddn\ 4dddn\	.
8GG/	.	.
8E/J)	8r	.
=213	=213	=213
*^	*	*
(4E/	4r	4cc\ 4ccc\	.
8F#/	8r	8r	.
4G/	4.C\	4a\ 4aa\	.
8F#/)	.	8r	.
=214	=214	=214	=214
(4.E/	2.BB\	2.b\ 2.bb\	.
4.D#/)	.	.	.
*v	*v	*	*
=215	=215	=215
[4.C/	4.a\ 4.aa\	.
8C/L]	[4.aa\ [4.aaa\	.
8AA/	.	.
8E/J	.	.
=216	=216	=216
[4.E\	4.aa\] 4.aaa\]	.
(8E\L]	4gg\ 4ggg\	.
8BB\	.	.
8B\J)	8r	.
=217	=217	=217
*^	*	*
8B/L	4r	4ff#\ 4fff#\	.
8c/	.	.	.
8B/J	8r	8r	.
8A/L	4BB\	4dd#\ 4ddd#\	.
8G/	.	.	.
8F#/J	8r	8r	.
=218	=218	=218	=218
8G/L	4E\	4ee\ 4eee\	.
8A/	.	.	.
8G/J	8r	8r	.
8Fn/L	4GG\	4b\ 4bb\	.
8E/	.	.	.
8D/J	8r	8r	.
=219	=219	=219	=219
4C/	4C\	(4ee\	p
8r	8r	8ddn\	.
4r	4r	4b\	.
8r	8r	8cc\)	.
*v	*v	*	*
=220	=220	=220
*	*^	*
4r	4.g/	4r	.
(8d\	.	8fn\	.
4c\	4g/	4e'\	.
8B\)	8g/	8d\	.
=221	=221	=221	=221
4c\	(4.g/	4e'\	.
8B\	.	8d\	<
4A\	4f#/	4c\	.
8G\ 8B\	8g/	8d\	.
=222	=222	=222	=222
4.F#\ 4.c\	4.a/	4.e-\	>
4.G\ 4.B\	4.g/)	4.d\	.
*	*v	*v	*
=223	=223	=223
*	*clefF4	*clefF4
4EE/	(4En\	p
8DD/	8D\	.
4BBB/	4BB/	.
8CC/	8C/	.
=224	=224	=224
4.GGG/	4.GG/)	.
4GGG/ 4GG/	4r	.
8GGG/ 8GG/	8r	.
*	*clefG2	*clefG2
=225	=225	=225
2.GGG/ 2.GG/	(4e/	.
.	8d/	.
.	4B/	.
.	8c#/)	.
=226	=226	=226
2.FFF#/ 2.FF#/	4.A#/	.
.	4A#/	.
.	8A#/	.
=227	=227	=227
2.Fn\ 2.An\	(4ccn\	<
.	8b\	.
.	4g#/	.
.	8an/)	.
=228	=228	=228
2.E\ 2.A\ 2.c\	4.a/	.
.	4a/	.
.	8a/	.
=229	=229	=229
*	*^	*
2.D#\ 2.F#\ 2.B\	(4aa/	[2.a\	.
.	8gg/	.	.
.	4ee/	.	.
.	8ff#/)	.	.
=230	=230	=230	=230
2.C\ 2.E\ 2.A\	4.ff#/	2.a\]	.
.	4ff#/	.	.
.	8ff#/	.	.
=231	=231	=231	=231
*^	*	*	*
4BB\ 4D#\ 4F#\ 4B\	4.r	[4.ff#/	8r	p
.	.	.	8b\L	.
*clefG2	*clefG2	*	*	*
8r	.	.	8dd#\J	.
4.B\	8d#/L	8ff#/L]	[4.b\	.
.	8e/	8gg/	.	.
.	8f#/J	8aa/J	.	.
=232	=232	=232	=232	=232
4.e/	2.B\	[4.gg/	8b\L]	.
.	.	.	8b\	.
.	.	.	8ee\J	.
8e/L	.	8gg/L]	[4.b\	.
8f#/	.	8aa/	.	.
8g/J	.	8bb/J	.	.
*v	*v	*	*	*
=233	=233	=233	=233
8B/L	(4aa/	4.b\]	<
8f#/	.	.	.
8g/J	8bb/	.	.
8B/L	4ccc/	4dd#\	.
8a/	.	.	.
8g/J	8bb/	8ee\	.
=234	=234	=234	=234
8B/L	4aa/	8ff#\	.
8f#/	.	[4b\	.
8e/J	8gg/	.	.
8B/L	4ff#/	4.b\]	.
8d#/	.	.	.
8e/J	8gg/)	.	.
=235	=235	=235	=235
*^	*	*	*
8B/L	2.B\	[4.ff#/	8ff#\L	.
8d#/	.	.	8dd#\	.
8f#/J	.	.	[8b\J	.
8d#/L	.	8ff#/L]	4.b\]	.
8e/	.	8gg/	.	.
8f#/J	.	8aa/J	.	.
=236	=236	=236	=236	=236
8B/L	2.B\	4.gg/	(8gg\L	.
8e/	.	.	8ee\	.
8g/J	.	.	[8b\J	.
8e/L	.	8gg/L)	4.b\]	.
8f#/	.	8aa/	.	.
8g/J	.	8bb/J	.	.
*v	*v	*	*	*
=237	=237	=237	=237
8B/L	4aa/	4.b\	.
8f#/	.	.	.
8g/J	8bb/	.	.
8B/L	4ccc/	4dd#\	.
8a/	.	.	.
8g/J	8bb/	8ee\	.
=238	=238	=238	=238
8B/L	4aa/	8ff#\	.
8f#/	.	[4b\	.
8e/J	8gg/	.	.
8B/L	4ff#/	4.b\_	.
8d#/	.	.	.
8e/J	8gg/	.	.
*	*v	*v	*
=239	=239	=239
8B/L	4b\] 4aa\	.
8f#/	.	.
8g/J	8b\ 8bb\	.
8B/L	4cc\ 4ccc\	.
8a/	.	.
8g/J	8b\ 8bb\	.
=240	=240	=240
8B/L	4cc\ 4ccc\	.
8a/	.	.
8b/J	8dd#\ 8ddd#\	.
8B/L	4ee\ 4eee\	.
8cc/	.	.
8b/J	8dd#\ 8ddd#\	.
=241	=241	=241
8B/L	4ee\ 4eee\	.
8cc/	.	.
8dd#/J	8ff#\ 8fff#\	.
8ee/L	4gg\ 4ggg\	.
8e/	.	.
8dd#/J	8ff#\ 8fff#\	.
=242	=242	=242
8ee/L	4gg\ 4ggg\	.
8e/	.	.
8dd#/J	8ff#\ 8fff#\	>
4ee\	4gg\ 4ggg\	.
*clefF4	*	*
8E\	8bb\ [8ggg\	.
=243	=243	=243
8F#\L	4aa#\ 4ggg\]	p
8A#\	.	.
8c#\J	[8gg\	.
8F#\L	(8gg\L]	.
8G#\	8ff#\	.
8A#\J	8ee\J)	.
=244	=244	=244
8F#\L	(4ee\	.
8d\	.	.
8B\J	8cc#\	.
8Fn\L	4dd\)	.
8B\	.	.
8G#\J	[8fffn^\	.
=245	=245	=245
8E\L	4fff\]	.
8B\	.	.
8G#\J	[8ffn\	.
8E\L	(8ff\L]	.
8F#\	8ee\	.
8G#\J	8dd\J)	.
=246	=246	=246
8E\L	(4dd\	.
8cn\	.	.
8An\J	8b\	.
8E-\L	4ccn\)	.
8A\	.	.
8F#\J	[8eee-^\	.
=247	=247	=247
8D\L	4eee-\]	.
8F#\	.	.
8A\J	[8ee-\	.
8D\L	(8ee-\L]	.
8En\	8dd\	.
8F#\J	8cc\J)	.
=248	=248	=248
8D\L	(4cc\	.
8B-\	.	.
8G\J	8a\	.
8D-\L	4b-'\)	.
8G\	.	.
8E\J	[8bb-^\	.
=249	=249	=249
*^	*	*
8Cn/L	2.Cn\	2.bb-\_	.
8D/	.	.	.
8E/J	.	.	.
8Fn/L	.	.	.
8G/	.	.	.
8E/J	.	.	.
=250	=250	=250	=250
8C/L	4.C\	(4bb-\]	.
8Fn/	.	.	.
8A/J	.	8aa\	.
8C/L	4.BB-\	4gg\	.
8E/	.	.	.
8G/J	.	8ccc\)	.
=251	=251	=251	=251
8BB-/L	2.BB-\	4r	.
8C/	.	.	.
8E/J	.	8r	.
8G/L	.	(4ccc\	p
8E/	.	.	.
8C/J	.	8gg\	.
=252	=252	=252	=252
8AA/L	2.AA\	4ccc''\)	.
8C/	.	.	.
8Fn/J	.	8r	.
8A/L	.	4ccc\	.
8F/	.	.	.
8C/J	.	8r	.
=253	=253	=253	=253
8BB-/L	2.BB-\	4r	.
8C/	.	.	.
8E/J	.	8r	.
8G/L	.	(4cc\	pp
8E/	.	.	.
8C/J	.	8g/	.
=254	=254	=254	=254
8AA/L	2.AA\	4cc''\)	.
8C/	.	.	.
8Fn/J	.	8r	.
8A/L	.	4cc\	.
8F/	.	.	.
8C/J	.	8r	.
*v	*v	*	*
*	*clefF4	*clefF4
=255	=255	=255
*	*^	*
2.BBB-/ 2.BB-/	4r	8E\L	<
.	.	8G\	.
.	8r	8Fn\J	.
.	(4c/	8E\L	.
.	.	8D#\	.
.	8G/)	8E\J	.
=256	=256	=256	=256
*^	*	*	*
8BBn/L	2.BBBn\	4Bn/	8G\L	.
8AA/	.	.	8F#\	.
8GG/J	.	8r	8E\J	.
8FF#/L	.	4B/	8D#\L	.
8EE/	.	.	8E\	.
8DD#/J	.	8r	8F#\J	.
*v	*v	*	*	*
*	*v	*v	*
*	*clefG2	*clefG2
=257	=257	=257
4BBB/ 4BB/	8B/L	f
.	8c#/	.
8r	8d#/J	.
4BBB/ 4BB/	8e/L	.
.	8f#/	.
8r	8g/J	.
=258	=258	=258
4BBB/ 4BB/	8a\L	.
.	8b\	.
8r	8cc#\J	.
4BBB/ 4BB/	8dd#\L	.
.	8ee\	.
8r	8ff#\J	.
=259	=259	=259
4.GGG/ 4.GG/	8gg\L	.
.	8aa\	.
.	8bb\J	.
4.FFF#/ 4.FF#/	8ccc#\L	.
.	8ddd\	.
.	8ddd#\J	.
=260	=260	=260
4.EEE/ 4.EE/	8eee\L	.
.	8ddd#\	.
.	8eee\J	.
4DDn/	8fff#\L	.
.	8ggg\	.
8CC/	8aaa\J	.
=261	=261	=261
(8BBB/L	4b\ 4bb\	.
8CC#/	.	.
8DD#/J)	8r	.
8EE/L	4b\ 4bb\	.
8FF#/	.	.
8GG/J	8r	.
=262	=262	=262
8AA/L	4b\ 4bb\	.
8BB/	.	.
8C#/J	8r	.
8D#\L	4b\ 4bb\	.
8E\	.	.
8F#\J	8r	.
=263	=263	=263
8G\L	4.g\ 4.gg\	.
8A\	.	.
8B\J	.	.
*clefG2	*	*
8c#/L	4.ff#\	.
8d/	.	.
8d#/J	.	.
=264	=264	=264
8e/L	4.ee\	.
8d#/	.	.
8e/J	.	.
8f#/L	4ddn\	.
8g/	.	.
8a/J	8ccn\	.
*clefF4	*	*
=265	=265	=265
4BB''\ 4B''\	4b''\ 4bb''\	ff
8r	8r	.
4BB''\ 4B''\	4b''\ 4bb''\	.
8r	8r	.
=266	=266	=266
4E''\ 4e''\	4ee''\ 4eee''\	.
8r	8r	.
4r	4r	.
8r	8r	.
=267	=267	=267
4BB/	4A/ 4d#/ 4f#/	p
8r	8r	.
4BB/	4A/ 4d#/ 4f#/	.
8r	8r	.
=268	=268	=268
4E\	4G/ 4B/	.
8r	8r	.
4r	4r	.
8r	8r	.
=269	=269	=269
4.BB/	2.r	.
4.BB/	.	.
=270	=270	=270
4.BB/	4.b\	p
4.BB/	4.b\	.
=271	=271	=271
4.GG/	4.b\ 4.ee\	.
4.FF#/	4.a\ 4.ee\	.
=272	=272	=272
4.EE/	4.g\ 4.ee\ 4.gg\	<
4.DD/	4.g\ 4.ee\ 4.gg\	.
=273	=273	=273
4.CC/	4.ee\ 4.gg\ 4.ccc\	.
4.BBB/	4.ee\ 4.gg\ 4.ccc\	.
=274	=274	=274
4.AAA/	4.ee\ 4.ccc\ 4.eee\	.
4.GGG/	4.ee\ 4.ccc\ 4.eee\	.
=275	=275	=275
4FFF#/ 4FF#/	4ee''\ 4aa''\ 4eee''\	f
8r	8r	.
4BBB''/ 4BB''/	4dd#''\ 4ff#''\ 4ddd#''\	.
8r	8r	.
=276	=276	=276
4EE''/ 4E''/	4ee''\ 4gg''\ 4eee''\	.
8r	8r	.
4r	4r	.
8r	8r	.
==	==	==
*-	*-	*-
!!!ENC: Craig Stuart Sapp
!!!END: 2005/08/28/
